X:1
T:Title
%%score { 1 | 2 }
L:1/8
M:4/4
K:Bb
V:1 treble nm="Grand Piano"
V:2 bass 
V:1
 z4 z2[Q:1/4=100] [B,D][CE] | [DF][DF][DF][DF] [DF][DF][DF][CE] | %2
 [B,D][CE][DF][EG] [DB]2 [FB][FB] | cccc cc[FB]c | dcBG [DF]2 [B,D][CE] | %5
 [DF][DF][DF][DF] [DF][DF][DF][CE] | [B,D][CE][DF][EG] [DB]2 [FB][FB] | %7
[M:17/16] ccdd[Ge][Ge]3/2[FGd][EGc] |[M:7/8] [DFB][DFB][CFA] [EFA] [DFB]3 |[M:3/8] [DB]3 | %10
[M:4/4] cccc c2 [FB]c | dcBG [DF]2 [B,D][CE] | [DF][DB][DB][DB] [EA]2 [DB]2 | c6 cc | %14
 [Fd][Fd][Fd][Fd] [DB][DB][B,EG][B,EG] | [B,FB][B,FB][B,EG][B,EG] [B,DF]2[K:bass] [F,B,D][F,CE] | %16
[M:17/16][K:treble] [DF][DB][FB]cdd[Ge]3/2[Gc] |[M:7/8] BBA A [DFB]3 |] %18
V:2
 z4 z2 [B,,F,][B,,F,] | [B,,B,][B,,B,][B,,B,][B,,B,] [B,,B,][B,,B,][B,,B,][B,,F,] | %2
 [B,,F,][B,,F,][B,,B,][B,,B,] [B,,B,]2 [D,B,][D,B,] | %3
 [F,A,F][F,A,F][F,A,F][F,A,F] [F,A,F][F,A,F][D,B,][K:treble][F,A,F] | %4
 [B,F][K:bass][F,A,E][G,B,D][E,B,E] [B,,B,]2 [B,,F,][B,,F,] | %5
 [B,,B,][B,,B,][B,,B,][B,,B,] [B,,B,][B,,B,][B,,B,][B,,F,] | %6
 [B,,F,][B,,F,][B,,B,][B,,B,] [B,,B,]2 [D,B,][D,B,] | %7
[M:17/16][K:treble] [F,A,F][F,A,F][B,F][B,_A][K:bass][E,B,][E,B,]3/2E,E, |[M:7/8] F,F,F, F, B,,3 | %9
[M:3/8] [B,,F,]3 |[M:4/4] [F,A,F][F,A,F][F,A,F][F,A,F] [F,A,F]2 [D,B,][K:treble][F,A,F] | %11
 [B,F][K:bass][F,A,E][G,B,D][E,B,E] [B,,B,]2 [B,,F,][B,,F,] | %12
 [B,,B,][B,,F,][B,,F,][B,,F,] [C,F,]2 [B,,F,]2 | [F,A,F]6 [F,A,F][F,A,F] | %14
 [B,,B,][B,,B,][B,,B,][B,,B,] [B,,B,][B,,B,]E,E, | D,D,E,E, B,,2 B,,B,, | %16
[M:17/16] [B,,B,][B,,B,][D,B,][K:treble][F,A,F][B,F][B,_A][K:bass][E,B,]3/2[E,E] | %17
[M:7/8] [F,DF][F,DF][F,CF] [F,EF] B,,3 |] %18

